public/assets/trusts-llama/coinbase.svg

<svg fill="none" height="21" viewBox="0 0 110 21" width="110" xmlns="http://www.w3.org/2000/svg"><path d="m22.2009 6.01415c-3.996 0-7.1184 3.03349-7.1184 7.09445 0 4.0609 3.0435 7.0684 7.1184 7.0684s7.1713-3.0594 7.1713-7.0944c0-4.00902-3.0434-7.06845-7.1713-7.06845zm.027 11.23625c-2.2756 0-3.9432-1.7674-3.9432-4.1408 0-2.4005 1.6406-4.16681 3.9162-4.16681 2.3026 0 3.9691 1.79331 3.9691 4.16681 0 2.3734-1.6665 4.1408-3.9421 4.1408zm8.017-8.14986h1.9849v10.81386h3.1753v-13.63664h-5.1602zm-23.15347-.15877c1.66752 0 2.99057 1.02848 3.49277 2.55823h3.361c-.6091-3.27016-3.308-5.48585-6.82682-5.48585-3.99604 0-7.11838 3.03349-7.11838 7.09545 0 4.0619 3.04346 7.0684 7.11838 7.0684 3.43992 0 6.19182-2.2157 6.80082-5.5128h-3.335c-.4763 1.5298-1.79931 2.5852-3.4668 2.5852-2.30258 0-3.91619-1.7674-3.91619-4.1408.00102-2.4005 1.58865-4.16783 3.89022-4.16783zm83.48547 2.84873-2.3285-.3425c-1.1111-.1577-1.9051-.5272-1.9051-1.3979 0-.94956 1.0325-1.42386 2.4344-1.42386 1.5348 0 2.5142.65904 2.7258 1.74046h3.0696c-.3444-2.74296-2.4614-4.35157-5.7156-4.35157-3.361 0-5.5836 1.71447-5.5836 4.14087 0 2.3205 1.4557 3.6665 4.3924 4.0879l2.3285.3425c1.1384.1577 1.7733.6071 1.7733 1.4508 0 1.0814-1.1111 1.5297-2.6459 1.5297-1.8793 0-2.9376-.7648-3.0964-1.9251h-3.1224c.2916 2.664 2.3816 4.5362 6.1918 4.5362 3.4669 0 5.7684-1.5826 5.7684-4.2996 0-2.4263-1.6666-3.6925-4.2867-4.0879zm-56.7594-11.130376c-1.1643 0-2.0378.843746-2.0378 2.004016s.8726 2.00401 2.0378 2.00401c1.1642 0 2.038-.84374 2.038-2.00401s-.8738-2.004016-2.038-2.004016zm46.5986 10.286676c0-2.95362-1.7991-4.93167-5.6097-4.93167-3.5986 0-5.6096 1.8203-6.0069 4.61617h3.1491c.1588-1.08143 1.0056-1.9781 2.805-1.9781 1.6147 0 2.4084.71193 2.4084 1.5827 0 1.1343-1.456 1.4238-3.2551 1.6086-2.4344.2635-5.451 1.1073-5.451 4.2726 0 2.4533 1.8262 4.035 4.7371 4.035 2.2754 0 3.7043-.9496 4.4194-2.4534.1059 1.345 1.1114 2.2157 2.5142 2.2157h1.8523v-2.8218h-1.5618v-6.1458zm-3.1224 3.4289c0 1.8203-1.5877 3.1652-3.5198 3.1652-1.1909 0-2.1964-.5012-2.1964-1.5556 0-1.345 1.6143-1.7145 3.0963-1.8722 1.4289-.1318 2.2226-.4484 2.6199-1.0554zm-16.8558-8.36155c-1.7734 0-3.2551.73889-4.3134 1.97805v-7.46388h-3.1753v19.38608h3.1222v-1.7933c1.0583 1.2921 2.5673 2.0569 4.3665 2.0569 3.8102 0 6.695-3.0065 6.695-7.0684 0-4.06196-2.9376-7.09545-6.695-7.09545zm-.4762 11.23625c-2.2757 0-3.9431-1.7674-3.9431-4.1408 0-2.3735 1.6935-4.16681 3.9689-4.16681 2.3027 0 3.9161 1.76741 3.9161 4.16681 0 2.3734-1.6665 4.1408-3.9419 4.1408zm-14.6074-11.23625c-2.0638 0-3.4138.84374-4.2075 2.03095v-1.76734h-3.1495v13.63564h3.1753v-7.4109c0-2.0839 1.323-3.56073 3.2812-3.56073 1.8262 0 2.9634 1.29213 2.9634 3.16533v7.8073h3.1753v-8.044c.0012-3.42988-1.7713-5.85625-5.2382-5.85625zm64.6457 6.64715c0-3.90325-2.858-6.64617-6.695-6.64617-4.0749 0-7.0653 3.05946-7.0653 7.09447 0 4.2466 3.202 7.0684 7.1183 7.0684 3.308 0 5.901-1.952 6.562-4.7209h-3.308c-.476 1.2132-1.64 1.8991-3.202 1.8991-2.038 0-3.5729-1.2661-3.9165-3.4818h10.5055v-1.2131zm-10.3207-1.0555c.5037-1.89916 1.9317-2.82178 3.5727-2.82178 1.799 0 3.175 1.02845 3.493 2.82178z" fill="#fff"/></svg>

<svg xmlns="http://www.w3.org/2000/svg" width="110" height="21" viewBox="0 0 110 21" fill="none">
  <path d="M22.2009 6.01415C18.2049 6.01415 15.0825 9.04764 15.0825 13.1086C15.0825 17.1695 18.126 20.177 22.2009 20.177C26.2758 20.177 29.3722 17.1176 29.3722 13.0826C29.3722 9.07358 26.3288 6.01415 22.2009 6.01415ZM22.2279 17.2504C19.9523 17.2504 18.2847 15.483 18.2847 13.1096C18.2847 10.7091 19.9253 8.94279 22.2009 8.94279C24.5035 8.94279 26.17 10.7361 26.17 13.1096C26.17 15.483 24.5035 17.2504 22.2279 17.2504ZM30.2449 9.10054H32.2298V19.9144H35.4051V6.27776H30.2449V9.10054ZM7.09143 8.94177C8.75895 8.94177 10.082 9.97025 10.5842 11.5H13.9452C13.3361 8.22984 10.6372 6.01415 7.11838 6.01415C3.12234 6.01415 0 9.04764 0 13.1096C0 17.1715 3.04346 20.178 7.11838 20.178C10.5583 20.178 13.3102 17.9623 13.9192 14.6652H10.5842C10.1079 16.195 8.78489 17.2504 7.1174 17.2504C4.81482 17.2504 3.20121 15.483 3.20121 13.1096C3.20223 10.7091 4.78986 8.94177 7.09143 8.94177ZM90.5769 11.7905L88.2484 11.448C87.1373 11.2903 86.3433 10.9208 86.3433 10.0501C86.3433 9.10054 87.3758 8.62624 88.7777 8.62624C90.3125 8.62624 91.2919 9.28528 91.5035 10.3667H94.5731C94.2287 7.62374 92.1117 6.01513 88.8575 6.01513C85.4965 6.01513 83.2739 7.7296 83.2739 10.156C83.2739 12.4765 84.7296 13.8225 87.6663 14.2439L89.9948 14.5864C91.1332 14.7441 91.7681 15.1935 91.7681 16.0372C91.7681 17.1186 90.657 17.5669 89.1222 17.5669C87.2429 17.5669 86.1846 16.8021 86.0258 15.6418H82.9034C83.195 18.3058 85.285 20.178 89.0952 20.178C92.5621 20.178 94.8636 18.5954 94.8636 15.8784C94.8636 13.4521 93.197 12.1859 90.5769 11.7905ZM33.8175 0.660124C32.6532 0.660124 31.7797 1.50387 31.7797 2.66414C31.7797 3.82441 32.6523 4.66815 33.8175 4.66815C34.9817 4.66815 35.8555 3.82441 35.8555 2.66414C35.8555 1.50387 34.9817 0.660124 33.8175 0.660124ZM80.4161 10.9468C80.4161 7.99318 78.617 6.01513 74.8064 6.01513C71.2078 6.01513 69.1968 7.83543 68.7995 10.6313H71.9486C72.1074 9.54987 72.9542 8.6532 74.7536 8.6532C76.3683 8.6532 77.162 9.36513 77.162 10.2359C77.162 11.3702 75.706 11.6597 73.9069 11.8445C71.4725 12.108 68.4559 12.9518 68.4559 16.1171C68.4559 18.5704 70.2821 20.1521 73.193 20.1521C75.4684 20.1521 76.8973 19.2025 77.6124 17.6987C77.7183 19.0437 78.7238 19.9144 80.1266 19.9144H81.9789V17.0926H80.4171V10.9468H80.4161ZM77.2937 14.3757C77.2937 16.196 75.706 17.5409 73.7739 17.5409C72.583 17.5409 71.5775 17.0397 71.5775 15.9853C71.5775 14.6403 73.1918 14.2708 74.6738 14.1131C76.1027 13.9813 76.8964 13.6647 77.2937 13.0577V14.3757ZM60.4379 6.01415C58.6645 6.01415 57.1828 6.75304 56.1245 7.9922V0.52832H52.9492V19.9144H56.0714V18.1211C57.1297 19.4132 58.6387 20.178 60.4379 20.178C64.2481 20.178 67.1329 17.1715 67.1329 13.1096C67.1329 9.04764 64.1953 6.01415 60.4379 6.01415ZM59.9617 17.2504C57.686 17.2504 56.0186 15.483 56.0186 13.1096C56.0186 10.7361 57.7121 8.94279 59.9875 8.94279C62.2902 8.94279 63.9036 10.7102 63.9036 13.1096C63.9036 15.483 62.2371 17.2504 59.9617 17.2504ZM45.3543 6.01415C43.2905 6.01415 41.9405 6.85789 41.1468 8.0451V6.27776H37.9973V19.9134H41.1726V12.5025C41.1726 10.4186 42.4956 8.94177 44.4538 8.94177C46.28 8.94177 47.4172 10.2339 47.4172 12.1071V19.9144H50.5925V11.8704C50.5937 8.44052 48.8212 6.01415 45.3543 6.01415ZM110 12.6613C110 8.75805 107.142 6.01513 103.305 6.01513C99.2301 6.01513 96.2397 9.07459 96.2397 13.1096C96.2397 17.3562 99.4417 20.178 103.358 20.178C106.666 20.178 109.259 18.226 109.92 15.4571H106.612C106.136 16.6703 104.972 17.3562 103.41 17.3562C101.372 17.3562 99.8371 16.0901 99.4935 13.8744H109.999V12.6613H110ZM99.6793 11.6058C100.183 9.70664 101.611 8.78402 103.252 8.78402C105.051 8.78402 106.427 9.81247 106.745 11.6058H99.6793Z" fill="white"/>
</svg>
